public/assets/img/paw-heart.svg

<svg fill="none" height="323" viewBox="0 0 182 323" width="182" xmlns="http://www.w3.org/2000/svg"><path d="m15.7138 304.427c.8 0 1.3333 6.667 1.5 10 2.1667 1.167 7.9001 3.8 13.5001 5 7 1.5 38.5 2.5 47.5 3 0 0 83.0001-1.5 83.0001-5s-2.5-68.7-2.5-71.5-1.667-7.833-2.5-10c-1.167-3-4.8-9.1-10-9.5-6.5-.5-85.0001 6.5-99.5001 6.5h-28.5001c-2 0-9.99995 3.5-9.49995 5.5s4.49995-.5 5.99995-1-.5 11 0 35.5-1.5 23-3.5 25.5-1.5 6-1 7 4.5-1 5.5-1z" fill="#d9d9d9"/><path d="m39.2138 242.928c-5 1-10-2-14.5-5.5-3.5999-2.8-7.8333-.167-9.5 1.5-1.5.166-4.7999.499-5.99993.499-1.5 0-.5-1.999-.5-3 0-1 6.49993-13 6.49993-15.5s-5.99993-24-7.99993-32-4.00003-18.5-5.00003-33.5 2.5-21 10.99996-28.5c6.8-6 19.5-5.166 25-4 0-2.333 2.1-8.999 10.5-17 8.4-7.9996 19.8334-5 24.5-2.5-.1666-4.6662 2.5-16.2994 14.5-25.4994 15.0002-11.5 34.0002 9 39.0002 15 4 4.8 9.667 16.6664 12 22.0004 1 0 4.4.2 10 1 7 1 13.5 6 18.5 13.5s1.5 20.5-1 24-10 14.5-12 21 2 22 3.5 26 5 16 3.5 17c-1.2.8-6.167-3-8.5-5 1.667 3 5.5 9.7 7.5 12.5 2.5 3.5 3 6.5 1 8.5-1.6 1.6-5.667-.667-7.5-2l4 7.5h-7c-5 0-17-2-21.5-3s-3.5 4-8 4.5-10-1.5-13.5-1.5-13.5002 5.5-23.5002 7.5-17-4.5-19-7.5c-2-3.001-2.5 0-6 0s-2.5 0-4.5 3-4 1-6 0-4.5 0-9.5 1z" fill="#fefefe"/><path d="m48.2139 206.927c-10.4-.4-13.6667-10.833-14-16l1-8.5c1-1 3.6-3.5 6-5.5 3-2.5 3-5 5-10.5 1.6-4.4.3333-11.166-.5-14 .3333.667 1.3 2.4 2.5 4 1.5 2 11 7.5 15 9s9-1.5 11.5-2.5c2-.8 6.8333-5.333 9-7.5 4.1666.334 13.8 2 19.0001 6 6.5 5 14.5 20 3.5 32.5-11.0001 12.5-23.0001 5.5-34.0001 5.5s-11 8-24 7.5z" fill="#f9b3ac"/><ellipse cx="97.7139" cy="102.927" fill="#f9b3ac" rx="14" ry="14.5"/><ellipse cx="137.766" cy="140.539" fill="#f9b3ac" rx="14" ry="14.5" transform="matrix(.7635301 .64577224 -.64577224 .7635301 123.333697 -55.732215)"/><path d="m17.7137 314.927c-.6667-.666-1.9-3-1.5-7 .5-5-2-4-4.5-3s-2.49998-4 1-8c3.5-4 2.4999-9 2.4999-14s-1-38 0-43c1.0001-5-4 .5-5.99997-1.5-2-2 5.99997-10 5.99997-16.5s-7.49967-29.5-8.49967-35-3.5-17.5-4-26m0 0c-.5-8.5-1.999995-27 10.49997-34 10-5.6 20.8333-5.333 25-4.5m-35.49997 38.5c.99998 9.334 7.59997 26.9 25.99997 22.5 23-5.5 18.5-29.5 16.5-33m-7-28c.8333-4.666 4.8-15.1 14-19.5 9.2-4.3995 18.1666-.833 21.5 1.5m-35.5 18c0 1.167.3 5.3 1.5 12.5 1.5 9 3.5 12 5.5 15.5m28.5-46c-.3334-5.8328 2-19.2995 14-26.4995 15.0001-9 31.5001 7 36.5001 12.5s14 24.4995 15 24.9995m-65.5001-11c1.6666 3.167 5.8 10.8 9 16 4 6.5 11 31.5-7 42-14.4 8.4-26.3334-4.5-30.5-12m28.5-46c3.8333 5.5 12.6 17 17 19m48.5001-8c1 .5 25.5-1.5 30 20s-15.5 24-15.5 45 16 45.5 2.5 34.5 7 10 6 16-8 .5-8.5 1 4.5 4.5 4.5 11.5c0 5.6 1.667 50.667 2.5 72.5m-21.5-200.5c-2 .334-7.3 2-12.5 6s-9.167 8.334-10.5 10" stroke="#232e53" stroke-linecap="round" stroke-width="3"/><g fill="#d9d9d9"><path d="m32.2139 192.927c-1.6 0-7.3334-5.333-10-8 1.1666-.5 4.1-1.5 6.5-1.5s5.6666-1.666 7-2.5c-.5 4-1.9 12-3.5 12z"/><path d="m76.7139 172.927c-4 0-9.8334-5.666-12-8 0 0 4.5-.499 6-1 1.5-.5 5-2 5-2 .5 1 1.1 3.7 1.5 6.5s-.1667 4.167-.5 4.5z"/><path d="m80.2139 72.4274c-2 1.2-.8334 8.1667 0 11.5.8333-.8333 2.9-2.7999 4.5-3.9999s4.6666-3.1667 6-4.0001c-2.6667-1.6667-8.5-4.7-10.5-3.5z"/><path d="m180.714 134.427c-1.6-2-8.333-1.833-11.5-1.5l1 4.5c.8 2.4-.333 6.667-1 8.5 4.5-3 13.1-9.5 11.5-11.5z"/></g><path d="m32.2139 192.927c-1.6 0-7.3334-5.333-10-8 1.1666-.5 4.1-1.5 6.5-1.5s5.6666-1.666 7-2.5c-.5 4-1.9 12-3.5 12z" stroke="#232e53" stroke-linecap="round" stroke-width="2"/><path d="m76.7139 172.927c-4 0-9.8334-5.666-12-8 0 0 4.5-.499 6-1 1.5-.5 5-2 5-2 .5 1 1.1 3.7 1.5 6.5s-.1667 4.167-.5 4.5z" stroke="#232e53" stroke-linecap="round" stroke-width="2"/><path d="m80.2139 72.4274c-2 1.2-.8334 8.1667 0 11.5.8333-.8333 2.9-2.7999 4.5-3.9999s4.6666-3.1667 6-4.0001c-2.6667-1.6667-8.5-4.7-10.5-3.5z" stroke="#232e53" stroke-linecap="round" stroke-width="2"/><path d="m180.714 134.427c-1.6-2-8.333-1.833-11.5-1.5l1 4.5c.8 2.4-.333 6.667-1 8.5 4.5-3 13.1-9.5 11.5-11.5z" stroke="#232e53" stroke-linecap="round" stroke-width="2"/><path d="m110.214 5.42743c12.8 11.59997-11.3337 31.83337-25.0003 40.49997-1.3334-.9999-5-3.4999-9-5.4999-5-2.5-29-20.0001-13.5-35.00007 12.4-12.00001 20.1666-1.33334 22.5 5.49997 3-6.66663 12.2-17.09997 25.0003-5.49997z" fill="#ff5391"/><path d="m139.714 36.9275c10.8 8.4-5.5 25.8333-15 33.5-2.5-1.1667-8.3-3.8-11.5-5-4-1.5-22.0001-16-9.5-27 10-8.8 15.833-.3333 17.5 5 1.667-5.6667 7.7-14.9 18.5-6.5z" fill="#ff5391"/><path d="m172.214 99.9275c-4 8.3995-16.667 8.8335-22.5 7.9995-4.667-7.666-11.7-23.7995-2.5-26.9995s11.833 4.3333 12 8.5c.167-.3333 1.1-1.1 3.5-1.5 3-.5 14.5 1.5 9.5 12z" fill="#ff5391"/></svg>

<svg width="182" height="323" viewBox="0 0 182 323" fill="none" xmlns="http://www.w3.org/2000/svg">
<path d="M15.7138 304.427C16.5138 304.427 17.0471 311.094 17.2138 314.427C19.3805 315.594 25.1139 318.227 30.7139 319.427C37.7139 320.927 69.2139 321.927 78.2139 322.427C78.2139 322.427 161.214 320.927 161.214 317.427C161.214 313.927 158.714 248.727 158.714 245.927C158.714 243.127 157.047 238.094 156.214 235.927C155.047 232.927 151.414 226.827 146.214 226.427C139.714 225.927 61.2139 232.927 46.7139 232.927H18.2138C16.2138 232.927 8.21385 236.427 8.71385 238.427C9.21385 240.427 13.2138 237.927 14.7138 237.427C16.2138 236.927 14.2138 248.427 14.7138 272.927C15.2138 297.427 13.2138 295.927 11.2138 298.427C9.2138 300.927 9.7138 304.427 10.2138 305.427C10.7138 306.427 14.7138 304.427 15.7138 304.427Z" fill="#D9D9D9"/>
<path d="M39.2138 242.928C34.2138 243.928 29.2138 240.928 24.7138 237.428C21.1139 234.628 16.8805 237.261 15.2138 238.928C13.7138 239.094 10.4139 239.427 9.21387 239.427C7.71387 239.427 8.71387 237.428 8.71387 236.427C8.71387 235.427 15.2138 223.427 15.2138 220.927C15.2138 218.427 9.21387 196.927 7.21387 188.927C5.21387 180.927 3.21384 170.427 2.21384 155.427C1.21384 140.427 4.71384 134.427 13.2138 126.927C20.0138 120.927 32.7138 121.761 38.2138 122.927C38.2138 120.594 40.3138 113.928 48.7138 105.927C57.1138 97.9274 68.5472 100.927 73.2138 103.427C73.0472 98.7608 75.7138 87.1276 87.7138 77.9276C102.714 66.4276 121.714 86.9276 126.714 92.9276C130.714 97.7276 136.381 109.594 138.714 114.928C139.714 114.928 143.114 115.128 148.714 115.928C155.714 116.928 162.214 121.928 167.214 129.428C172.214 136.928 168.714 149.928 166.214 153.428C163.714 156.928 156.214 167.928 154.214 174.428C152.214 180.928 156.214 196.428 157.714 200.428C159.214 204.428 162.714 216.428 161.214 217.428C160.014 218.228 155.047 214.428 152.714 212.428C154.381 215.428 158.214 222.128 160.214 224.928C162.714 228.428 163.214 231.428 161.214 233.428C159.614 235.028 155.547 232.761 153.714 231.428L157.714 238.928H150.714C145.714 238.928 133.714 236.928 129.214 235.928C124.714 234.928 125.714 239.928 121.214 240.428C116.714 240.928 111.214 238.928 107.714 238.928C104.214 238.928 94.2138 244.428 84.2138 246.428C74.2138 248.428 67.2138 241.928 65.2138 238.928C63.2138 235.927 62.7138 238.928 59.2138 238.928C55.7138 238.928 56.7138 238.928 54.7138 241.928C52.7138 244.928 50.7138 242.928 48.7138 241.928C46.7138 240.928 44.2138 241.928 39.2138 242.928Z" fill="#FEFEFE"/>
<path d="M48.2139 206.927C37.8139 206.527 34.5472 196.094 34.2139 190.927L35.2139 182.427C36.2139 181.427 38.8139 178.927 41.2139 176.927C44.2139 174.427 44.2139 171.927 46.2139 166.427C47.8139 162.027 46.5472 155.261 45.7139 152.427C46.0472 153.094 47.0139 154.827 48.2139 156.427C49.7139 158.427 59.2139 163.927 63.2139 165.427C67.2139 166.927 72.2139 163.927 74.7139 162.927C76.7139 162.127 81.5472 157.594 83.7139 155.427C87.8805 155.761 97.5139 157.427 102.714 161.427C109.214 166.427 117.214 181.427 106.214 193.927C95.2139 206.427 83.2139 199.427 72.2139 199.427C61.2139 199.427 61.2139 207.427 48.2139 206.927Z" fill="#F9B3AC"/>
<ellipse cx="97.7139" cy="102.927" rx="14" ry="14.5" fill="#F9B3AC"/>
<ellipse cx="137.766" cy="140.539" rx="14" ry="14.5" transform="rotate(40.2236 137.766 140.539)" fill="#F9B3AC"/>
<path d="M17.7137 314.927C17.047 314.261 15.8137 311.927 16.2137 307.927C16.7137 302.927 14.2137 303.927 11.7137 304.927C9.2137 305.927 9.21372 300.927 12.7137 296.927C16.2137 292.927 15.2136 287.927 15.2136 282.927C15.2136 277.927 14.2136 244.927 15.2136 239.927C16.2137 234.927 11.2136 240.427 9.21363 238.427C7.21363 236.427 15.2136 228.427 15.2136 221.927C15.2136 215.427 7.71393 192.427 6.71393 186.927C5.71393 181.427 3.21393 169.427 2.71393 160.927M2.71393 160.927C2.21393 152.427 0.713935 133.927 13.2139 126.927C23.2139 121.327 34.0472 121.594 38.2139 122.427M2.71393 160.927C3.71391 170.261 10.3139 187.827 28.7139 183.427C51.7139 177.927 47.2139 153.927 45.2139 150.427M38.2139 122.427C39.0472 117.761 43.0139 107.327 52.2139 102.927C61.4139 98.5275 70.3805 102.094 73.7139 104.427M38.2139 122.427C38.2139 123.594 38.5139 127.727 39.7139 134.927C41.2139 143.927 43.2139 146.927 45.2139 150.427M73.7139 104.427C73.3805 98.5942 75.7139 85.1275 87.7139 77.9275C102.714 68.9275 119.214 84.9275 124.214 90.4275C129.214 95.9275 138.214 114.927 139.214 115.427M73.7139 104.427C75.3805 107.594 79.5139 115.227 82.7139 120.427C86.7139 126.927 93.7139 151.927 75.7139 162.427C61.3139 170.827 49.3805 157.927 45.2139 150.427M73.7139 104.427C77.5472 109.927 86.3139 121.427 90.7139 123.427M139.214 115.427C140.214 115.927 164.714 113.927 169.214 135.427C173.714 156.927 153.714 159.427 153.714 180.427C153.714 201.427 169.714 225.927 156.214 214.927C142.714 203.927 163.214 224.927 162.214 230.927C161.214 236.927 154.214 231.427 153.714 231.927C153.214 232.427 158.214 236.427 158.214 243.427C158.214 249.027 159.881 294.094 160.714 315.927M139.214 115.427C137.214 115.761 131.914 117.427 126.714 121.427C121.514 125.427 117.547 129.761 116.214 131.427" stroke="#232E53" stroke-width="3" stroke-linecap="round"/>
<path d="M32.2139 192.927C30.6139 192.927 24.8805 187.594 22.2139 184.927C23.3805 184.427 26.3139 183.427 28.7139 183.427C31.1139 183.427 34.3805 181.761 35.7139 180.927C35.2139 184.927 33.8139 192.927 32.2139 192.927Z" fill="#D9D9D9"/>
<path d="M76.7139 172.927C72.7139 172.927 66.8805 167.261 64.7139 164.927C64.7139 164.927 69.2139 164.428 70.7139 163.927C72.2139 163.427 75.7139 161.927 75.7139 161.927C76.2139 162.927 76.8139 165.627 77.2139 168.427C77.6139 171.227 77.0472 172.594 76.7139 172.927Z" fill="#D9D9D9"/>
<path d="M80.2139 72.4274C78.2139 73.6274 79.3805 80.5941 80.2139 83.9274C81.0472 83.0941 83.1139 81.1275 84.7139 79.9275C86.3139 78.7275 89.3805 76.7608 90.7139 75.9274C88.0472 74.2607 82.2139 71.2274 80.2139 72.4274Z" fill="#D9D9D9"/>
<path d="M180.714 134.427C179.114 132.427 172.381 132.594 169.214 132.927L170.214 137.427C171.014 139.827 169.881 144.094 169.214 145.927C173.714 142.927 182.314 136.427 180.714 134.427Z" fill="#D9D9D9"/>
<path d="M32.2139 192.927C30.6139 192.927 24.8805 187.594 22.2139 184.927C23.3805 184.427 26.3139 183.427 28.7139 183.427C31.1139 183.427 34.3805 181.761 35.7139 180.927C35.2139 184.927 33.8139 192.927 32.2139 192.927Z" stroke="#232E53" stroke-width="2" stroke-linecap="round"/>
<path d="M76.7139 172.927C72.7139 172.927 66.8805 167.261 64.7139 164.927C64.7139 164.927 69.2139 164.428 70.7139 163.927C72.2139 163.427 75.7139 161.927 75.7139 161.927C76.2139 162.927 76.8139 165.627 77.2139 168.427C77.6139 171.227 77.0472 172.594 76.7139 172.927Z" stroke="#232E53" stroke-width="2" stroke-linecap="round"/>
<path d="M80.2139 72.4274C78.2139 73.6274 79.3805 80.5941 80.2139 83.9274C81.0472 83.0941 83.1139 81.1275 84.7139 79.9275C86.3139 78.7275 89.3805 76.7608 90.7139 75.9274C88.0472 74.2607 82.2139 71.2274 80.2139 72.4274Z" stroke="#232E53" stroke-width="2" stroke-linecap="round"/>
<path d="M180.714 134.427C179.114 132.427 172.381 132.594 169.214 132.927L170.214 137.427C171.014 139.827 169.881 144.094 169.214 145.927C173.714 142.927 182.314 136.427 180.714 134.427Z" stroke="#232E53" stroke-width="2" stroke-linecap="round"/>
<path d="M110.214 5.42743C123.014 17.0274 98.8803 37.2608 85.2137 45.9274C83.8803 44.9275 80.2137 42.4275 76.2137 40.4275C71.2137 37.9275 47.2137 20.4274 62.7137 5.42743C75.1137 -6.57258 82.8803 4.09409 85.2137 10.9274C88.2137 4.26077 97.4137 -6.17257 110.214 5.42743Z" fill="#FF5391"/>
<path d="M139.714 36.9275C150.514 45.3275 134.214 62.7608 124.714 70.4275C122.214 69.2608 116.414 66.6275 113.214 65.4275C109.214 63.9275 91.2139 49.4275 103.714 38.4275C113.714 29.6275 119.547 38.0942 121.214 43.4275C122.881 37.7608 128.914 28.5275 139.714 36.9275Z" fill="#FF5391"/>
<path d="M172.214 99.9275C168.214 108.327 155.547 108.761 149.714 107.927C145.047 100.261 138.014 84.1275 147.214 80.9275C156.414 77.7275 159.047 85.2608 159.214 89.4275C159.381 89.0942 160.314 88.3275 162.714 87.9275C165.714 87.4275 177.214 89.4275 172.214 99.9275Z" fill="#FF5391"/>
</svg>
